X:575
T:Brolum, The
C:Joe Buchanan's Scottish Tome - Page 156.1
I:156 1
Z:Carl Allison
R:Reel
L:1/8
M:4/4
K:A
f2 | "A"e2 (ce) "D"fefa | "A"A2 (cB) ceef | "A"e2 ce "D"fefa | "Bm"B2 ce "E7"fBBf |
"A"e2 ce "D"fefa | "A"A2 (cB) ceef | "A"ecae "D"f2 "A"(ec) | "E7"B2 (cB) "A"AAA :|
e | "A"A2 (cA) eAcA | "F#m"A2 (cB) "A"ceef | "A"A2 (cA) eAcA | "Bm"B2 (ce) "E7"fBBe |
"A"A2 (cA) eAcA | "F#m"A2 (cB) "A"ceef | "A"ecaf "D"f2 "A"(ec) | "E7"B2 (cB) "A"AAA :|
e | "D"a2 (af) "A"e2 (ce) | "F#m"A2 cB "A"ceef | a2 (af) "A"e2 (ce) | "Bm"B2 (ce) "E7"fBBe |
e | "D"a2 (af) "A"e2 (ce) | "F#m"A2 cB "A"ceef | "A"ecae "D"f2 "A"ec | "Bm"B2 (cB) AAA :|
e2 | "A"AAAc AAAc | "F#m"A2 (cB) "A"ceef | "A"AAAc AAA | "Bm"B2 (ce) "E7"fBBe |
"A"AAAc AAAc | A2 (cB) ceef | "A"ecae f2 "D"f2 "A"(ec) | "E7"B2 (cB) "A"AAA :|

